packages/kaspersky-hexa-ui-icons/src/iconsSVGs/48/Quarantine.svg

<svg xmlns="http://www.w3.org/2000/svg" width="48" height="48" fill="none" viewBox="0 0 48 48"><path fill="currentColor" fill-rule="evenodd" d="m29.4778 20.63-.87-.5-3.54 6.11a4.18 4.18 0 0 0-1-.15 3.88 3.88 0 0 0-1 .16l-3.52-6.11-.87.5a10.83 10.83 0 0 0-5.41 9.36v1h7a3.86 3.86 0 0 0 1 1.78l-3.5 6.07.87.5a10.82 10.82 0 0 0 10.77 0l.87-.5-3.5-6.07a3.86 3.86 0 0 0 1-1.81h7V30a10.86 10.86 0 0 0-5.3-9.37m-3.49 9.37a1.9 1.9 0 0 1-.82 1.56l-.15.09a1.94 1.94 0 0 1-1.91 0l-.14-.08a1.92 1.92 0 1 1 3-1.56zm-9.54-4.42a8.68 8.68 0 0 1 2.37-2.67l2.47 4.28a4.07 4.07 0 0 0-1 1.8h-4.97a8.81 8.81 0 0 1 1.13-3.4zm11.11 12.49a8.8 8.8 0 0 1-7 0l2.51-4.3a3.88 3.88 0 0 0 1 .16c.1665.0104.3335.0104.5 0l.5-.1zm.32-9.07a4 4 0 0 0-1-1.79l2.46-4.27a8.83 8.83 0 0 1 3.48 6.06zm2.19-16V6h1c1.6569 0 3-1.3431 3-3s-1.3431-3-3-3h-14c-1.6568 0-3 1.3432-3 3s1.3432 3 3 3h1v7C10.1223 15.774 5.1594 23.6832 6.118 32.0443c.9585 8.3611 7.5827 14.9419 15.9498 15.8457.7.07 1.39.11 2.08.11a17.75 17.75 0 0 0 12-4.59c4.7484-4.2496 6.896-10.6931 5.6466-16.9418C40.5451 20.2196 36.0851 15.0972 30.0678 13m-13-9c-.5523 0-1-.4477-1-1s.4477-1 1-1h14c.5523 0 1 .4477 1 1s-.4477 1-1 1zm17.67 37.92c-4.8771 4.3694-11.9243 5.326-17.7897 2.4148s-9.3649-9.1024-8.834-15.629S13.0991 16.635 19.3578 14.71l.71-.22V6h8v8.49l.7.22c5.5179 1.6891 9.6987 6.2186 10.9413 11.8539 1.2427 5.6352-.6455 11.503-4.9413 15.3561z" clip-rule="evenodd"/></svg>

<svg width="48" height="48" viewBox="0 0 48 48" fill="none" xmlns="http://www.w3.org/2000/svg">
<path fill-rule="evenodd" clip-rule="evenodd" d="M29.4778 20.63L28.6078 20.13L25.0678 26.24C24.7418 26.1497 24.406 26.0993 24.0678 26.09C23.7289 26.0994 23.3927 26.1532 23.0678 26.25L19.5478 20.14L18.6778 20.64C15.3348 22.5725 13.2736 26.1387 13.2678 30V31H20.2678C20.4354 31.6723 20.7808 32.2872 21.2678 32.78L17.7678 38.85L18.6378 39.35C21.9728 41.2636 26.0728 41.2636 29.4078 39.35L30.2778 38.85L26.7778 32.78C27.2696 32.2788 27.6153 31.6531 27.7778 30.97H34.7778V30C34.7924 26.1592 32.7771 22.5964 29.4778 20.63ZM25.9878 30C25.9868 30.623 25.6804 31.2059 25.1678 31.56L25.0178 31.65C24.4253 31.9851 23.7004 31.9851 23.1078 31.65L22.9678 31.57C22.2094 31.0539 21.9221 30.0734 22.2819 29.2295C22.6418 28.3857 23.5483 27.9143 24.4458 28.1043C25.3432 28.2944 25.9809 29.0927 25.9678 30.01L25.9878 30ZM16.4478 25.58C17.0443 24.5354 17.8514 23.6262 18.8178 22.91L21.2878 27.19C20.8057 27.6944 20.4614 28.3142 20.2878 28.99H15.3178C15.4576 27.7912 15.8422 26.634 16.4478 25.59V25.58ZM27.5578 38.07C25.3249 39.038 22.7908 39.038 20.5578 38.07L23.0678 33.77C23.3927 33.8668 23.7289 33.9206 24.0678 33.93C24.2343 33.9404 24.4013 33.9404 24.5678 33.93L25.0678 33.83L27.5578 38.07ZM27.8778 29C27.7057 28.3266 27.361 27.7096 26.8778 27.21L29.3378 22.94C31.2818 24.3955 32.5405 26.5874 32.8178 29H27.8778ZM30.0678 13V6H31.0678C32.7247 6 34.0678 4.65685 34.0678 3C34.0678 1.34315 32.7247 0 31.0678 0H17.0678C15.411 0 14.0678 1.34315 14.0678 3C14.0678 4.65685 15.411 6 17.0678 6H18.0678V13C10.1223 15.774 5.15942 23.6832 6.11799 32.0443C7.07655 40.4054 13.7007 46.9862 22.0678 47.89C22.7678 47.96 23.4578 48 24.1478 48C28.5806 48.0221 32.8613 46.3848 36.1478 43.41C40.8962 39.1604 43.0438 32.7169 41.7944 26.4682C40.5451 20.2196 36.0851 15.0972 30.0678 13ZM17.0678 4C16.5155 4 16.0678 3.55228 16.0678 3C16.0678 2.44772 16.5155 2 17.0678 2H31.0678C31.6201 2 32.0678 2.44772 32.0678 3C32.0678 3.55228 31.6201 4 31.0678 4H17.0678ZM34.7378 41.92C29.8607 46.2894 22.8135 47.246 16.9481 44.3348C11.0828 41.4237 7.58324 35.2324 8.11411 28.7058C8.64498 22.1793 13.0991 16.635 19.3578 14.71L20.0678 14.49V6H28.0678V14.49L28.7678 14.71C34.2857 16.3991 38.4665 20.9286 39.7091 26.5639C40.9518 32.1991 39.0636 38.0669 34.7678 41.92H34.7378Z"  fill="currentColor"/>
</svg>
